X: 1
T: Mary and the Soldier
R: song, march
Z: 2021 John Chambers <jc:trillian.mit.edu>
S: handwritten page from Clare Hurley 2021-8-21
M: 4/4
L: 1/8
K: D
% %continueall yes
% = = = = = = = = = =
de |\
"D"f2d2 "G"B2Bd |[M:6/4] "D"B2A2 "A"A2-A2 -A2de |\
[M:4/4] "D"f2dB "A"c2BA | "D"d2d2- d2 :|\
f2 |\
"D"a2aa a2a2 | "G"b2g2 "A"e2ed |
"G"d2dd d2dc | "D"B2A2 "A"A2AA |\
"G"B2Bd B2AB | "D"d2d2 "A"e2de |\
"D"f2dB "A"c2BA | "D"d2d2- d2 |]
